symbols-de/shields/motorway_11x2.svg

<?xml version="1.0" encoding="UTF-8" standalone="no"?>
<svg
   xmlns:dc="http://purl.org/dc/elements/1.1/"
   xmlns:cc="http://creativecommons.org/ns#"
   xmlns:rdf="http://www.w3.org/1999/02/22-rdf-syntax-ns#"
   xmlns:svg="http://www.w3.org/2000/svg"
   xmlns="http://www.w3.org/2000/svg"
   xmlns:sodipodi="http://sodipodi.sourceforge.net/DTD/sodipodi-0.dtd"
   xmlns:inkscape="http://www.inkscape.org/namespaces/inkscape"
   width="100%"
   height="100%"
   viewBox="0 0 74.0 24.0"
   id="svg2"
   version="1.1"
   inkscape:version="0.91 r13725"
   sodipodi:docname="autobahn_11x2.svg">
  <metadata
     id="metadata9">
    <rdf:RDF>
      <cc:Work
         rdf:about="">
        <dc:format>image/svg+xml</dc:format>
        <dc:type
           rdf:resource="http://purl.org/dc/dcmitype/StillImage" />
        <dc:title></dc:title>
      </cc:Work>
    </rdf:RDF>
  </metadata>
  <defs
     id="defs7" />
  <sodipodi:namedview
     pagecolor="#ffffff"
     bordercolor="#666666"
     borderopacity="1"
     objecttolerance="10"
     gridtolerance="10"
     guidetolerance="10"
     inkscape:pageopacity="0"
     inkscape:pageshadow="2"
     inkscape:window-width="940"
     inkscape:window-height="714"
     id="namedview5"
     showgrid="false"
     inkscape:zoom="4.7702703"
     inkscape:cx="37"
     inkscape:cy="12.104816"
     inkscape:window-x="655"
     inkscape:window-y="163"
     inkscape:window-maximized="0"
     inkscape:current-layer="svg2" />
  <path
     style="fill:#365eaf;fill-opacity:1;stroke:#0528a2;stroke-width:1;stroke-miterlimit:4;stroke-dasharray:none;stroke-opacity:1"
     d="m 37,0.4999975 c -0.523295,0 -0.78418,0.0033 -0.78418,0.01172 L 1.6790116,2.2812495 C 0.8940638,2.3660995 0.5,2.4943615 0.5,2.6640615 c 0,6.223959 0,12.4479185 0,18.6718755 0,0.1697 0.3940632,0.297965 1.1790116,0.382812 L 36.21582,23.48828 c 0,0.0085 0.26089,0.01172 0.78418,0.01172 0.523297,0 0.78418,-0.0033 0.78418,-0.01172 L 72.320988,21.718749 C 73.105937,21.633899 73.5,21.505636 73.5,21.335937 c 0,-6.223958 0,-12.4479165 0,-18.6718755 0,-0.1697 -0.394063,-0.297965 -1.179012,-0.382812 L 37.78418,0.5117155 c 0,-0.0085 -0.260891,-0.01172 -0.78418,-0.01172 z"
     id="path6"
     inkscape:connector-curvature="0"
     sodipodi:nodetypes="sccccccsccccccs" />
</svg>

<?xml version="1.0" encoding="UTF-8"?>
<svg xmlns="http://www.w3.org/2000/svg" xmlns:xlink="http://www.w3.org/1999/xlink" width="78pt" height="30pt" viewBox="0 0 78 30" version="1.1">
<g id="surface1">
<path style="fill-rule:nonzero;fill:rgb(21.176471%,36.862745%,68.627451%);fill-opacity:1;stroke-width:1;stroke-linecap:butt;stroke-linejoin:miter;stroke:rgb(1.960784%,15.686275%,63.529412%);stroke-opacity:1;stroke-miterlimit:4;" d="M 37 0.5 C 36.477464 0.5 36.214343 0.503125 36.214343 0.5125 L 1.678786 2.28125 C 0.893129 2.365625 0.5003 2.49375 0.5003 2.6625 C 0.5003 8.8875 0.5003 15.1125 0.5003 21.334375 C 0.5003 21.50625 0.893129 21.634375 1.678786 21.71875 L 36.214343 23.4875 C 36.214343 23.496875 36.477464 23.5 37 23.5 C 37.522536 23.5 37.785657 23.496875 37.785657 23.4875 L 72.321214 21.71875 C 73.106871 21.634375 73.4997 21.50625 73.4997 21.334375 C 73.4997 15.1125 73.4997 8.8875 73.4997 2.6625 C 73.4997 2.49375 73.106871 2.365625 72.321214 2.28125 L 37.785657 0.5125 C 37.785657 0.503125 37.522536 0.5 37 0.5 Z M 37 0.5 " transform="matrix(1.054054,0,0,1.25,0,0)"/>
</g>
</svg>
